material/.icons/material/calendar-blank-outline.svg

<svg xmlns="http://www.w3.org/2000/svg" viewBox="0 0 24 24"><path d="M19 4h-1V2h-2v2H8V2H6v2H5a2 2 0 00-2 2v14a2 2 0 002 2h14a2 2 0 002-2V6a2 2 0 00-2-2m0 16H5V10h14v10m0-12H5V6h14v2z"/></svg>

<?xml version="1.0" encoding="UTF-8"?><!DOCTYPE svg PUBLIC "-//W3C//DTD SVG 1.1//EN" "http://www.w3.org/Graphics/SVG/1.1/DTD/svg11.dtd"><svg xmlns="http://www.w3.org/2000/svg" xmlns:xlink="http://www.w3.org/1999/xlink" version="1.1" id="mdi-calendar-blank-outline" width="24" height="24" viewBox="0 0 24 24"><path d="M19,4H18V2H16V4H8V2H6V4H5C3.89,4 3,4.9 3,6V20A2,2 0 0,0 5,22H19A2,2 0 0,0 21,20V6A2,2 0 0,0 19,4M19,20H5V10H19V20M19,8H5V6H19V8Z" /></svg>
